X:44
T:Juhászlegény furulyáját
M:4/4
L:1/4
K:F
D<F A<d | c<A FG | c c/B/ A G | D2 D z |
D<F A<d | c<A FG | c c/B/ A G | D2 D z |
d>A d<A | d2 c2 | f<f e<d | A2 F2 |
D<F A<d | c<A FG | c c/B/ A G | D2 D z

